X:1
T:Where riches is everlastingly
T:Peter Warlock (1894 - 1930)
T: 16th century MS in Balliol College, Oxford 
T:Copyright  © 2001 The Choral Public Domain Library.   http://www.cpdl.org Edtion may be freely distributed, duplicated, performed or recorded.
T:Where riches is everlastingly
T:Copyright  © 2001 The Choral Public Domain Library.   http://www.cpdl.org Edtion may be freely distributed, duplicated, performed or recorded.
T:Copyright  © 2001 The Choral Public Domain Library.   http://www.cpdl.org Edtion may be freely distributed, duplicated, performed or recorded.
C:Peter Warlock
C:(1894 - 1930)
Z:16th century MS
Z:in Balliol College, Oxford
Z:
Z:Copyright  © 2001 The Choral Public Domain Library.   http://www.cpdl.org
Z:Edtion may be freely distributed, duplicated, performed or recorded.
%%score [ ( 1 2 ) ( 3 4 ) ]
L:1/8
M:6/4
K:F
V:1 treble nm="S A" snm="Tr."
V:2 treble 
V:3 bass nm="T B" snm="B."
V:4 bass 
V:1
"^Fast, with a good swing" A2 | F3 FEE (F2 D2) E2 | F3 F G2 (A4 A2) | d3 d d2 A A2 A G2 | %4
w: 3.~~A|sta- ble was his Cham- ber, a|crib was his bed, he|had not a pil- low to lay|
w: 1.~In-|to * this * world _ this|day * did come *|Je- * sus Christ * * both|
w: 2.~He|that _ was * rich with- out|a- * ny need a-|ppear'd in this world * * in|
 (F3 E) D2 A4 F2 | G2 G2 B2 A4 G2 | (A2 c2) =B2 c4 C2 | E3 F G2 A4 d2 | G4 c2 (A2 A2) f2 | %9
w: un- der his head; With|mai- we den's milk that|babe thi- was fed, in|poor clothes was wrapped the|Lord Al- migh- ty. I|
w: God _ and man, *|Lord * and ser- vant|in one per- son, *|born of the ble- ssed|Vir- gin Ma- ry. *|
w: right _ poor weed to|make * us, that were|poor _ in- deed, *|rich with- out a- ny|need tru- ly. * *|
 e3 d c2 B2 A2 G2 | F3 (G E2) A4 G2 | c3 d B2 (A2 G2) F2 | (E3 D) E2 D4 f2 | e3 d c2 B2 A2 G2 | %14
w: pray you be me- rry and|sing with _ me in|wor ship of Christ's * na-|\-~ti- * vi- ty. I|pray you be me- rry and|
w: |||||
w: |||||
 F3 (G E2) A4 (G2 | c3 d B2 A2 G2) F2 | (E3 D) E2 D4 x2 |] %17
w: sing with _ me in|wor- ship of Christ's * na-|ti- * vi- ty.|
w: |||
w: |||
V:2
 ^C2 | D4 D2 D2 D2 D2 | D4 E2 F4 F2 | F4 G2 D4 ^C2 | D4 D2 (D2 ^C2) D2 | E4 F2 F4 E2 | %6
 E2 F2 D2 E4 C2 | C3 D E2 F4 D2 | F4 E2 F2 F2 A2 | G3 F E2 D2 C2 D2 | C3 D ^C2 D4 (DE) | %11
 =F3 F _E2 (F2 B,2) D2 | =B,4 ^C2 D4 A2 | G3 F E2 D2 C2 D2 | C3 D ^C2 D4 DE | %15
 =F3 F _E2 (F2 B,2) D2 | =B,4 ^C2 D4 x2 |] %17
V:3
 A,2 | A,4 G,2 (A,2 F,2) G,2 | A,4 C2 (C4 C2) | D4 E2 (A,3 =B,) A,2 | (A,3 G,) F,2 E,4 A,2 | %5
 =C4 D2 (C3 D) B,2 | (C2 C2) G,2 G,4 E,2 | G,3 G, D,2 C,4 F,2 | (G,3 A,) B,2 C2 C2 D2 | %9
 E3 B, C2 G,2 A,2 B,2 | A,3 =B, A,2 ^F,4 D2 | C3 D C2 C4 A,2 | (G,3 F,) A,2 D,4 D2 | %13
 E3 B, C2 G,2 A,2 B,2 |"^arr D G M(original - see CPDL   ID 1792)" A,3 (=B, A,2) ^F,4 D2 | %15
 C3 D C2 C4 A,2 | (G,3 F,) A,2"^con 8va""^S" D,4 x2 |] %17
V:4
 A,,2 | D,4 D,2 D,2 D,2 D,2 | D,4 C,2 F,4 F,2 | B,4 B,2 F,4 E,2 | D,6 A,,4 D,2 | C,4 B,,2 F,4 G,2 | %6
 A,2 A,2 G,2 C,4 C,2 | C,3 C, _B,,2 A,,4 B,,2 | C,4 C,2 (F,,2 F,,2) B,2 | C3 G, A,2 _E,2 F,2 G,2 | %10
 D,3 =E, [A,,E,]2 D,4 _B,2 | A,3 B, G,2 F,4 F,,2 | G,,4 A,,2 D,4 _B,2 | C3 G, A,2 _E,2 F,2 G,2 | %14
 D,3 E, [A,,E,]2 D,4 _B,2 | A,3 B, G,2 F,4 F,,2 | G,,4 A,,2 D,4 x2 |] %17

